X: 60
T:Killaghbeg House
T:Ah, Surely
R:Reel
S:Trad, arr. Paddy O'Brien
M:C|
L:1/8
Q:1/2=112
E:9
K:G
B|AFAc BG~G2|BGBd gedB|AFAc BGBd|egdc BG~G2|
AFAc BG~G2|BGBd gfga|bgag egfa|gedc BGG:|
a|bg~g2 agef|gfge dega|bg~g2 aged|eaag ea~a2|
bg~g2 agef|gfge dega|bgag egfa|gedc BGG2:|
